X:1
T:Quis est hic
T:Ignatio Donati
T:Source : Primo libro di Motetti a voce sola---Venetia---A.Vincenti---1634. Editor : André Vierendeels (14/12/16).
T:Notes : Original clefs :C1, F4 Editorial accidentals above the staff Figures in BC are notated in original print "Canto o Tenore" m 20 and 23 :"Nicolaus" or "N." 
T:Quis est hic?
T:©
T:©
T:©
T:©
T:©
T:©
T:©
C:Ignatio Donati
Z:©
%%score 1 2
L:1/8
Q:1/4=120
M:4/4
K:C
V:1 treble nm="Soprano" snm="S"
V:2 bass nm="MusicXML Part"
V:1
 z2 Bc d2 GA | B2 cd e4- | e2 G^F A4- | A2 B2 z2 EF | G2 AB c2 de | f6 AG | B6 ^c2 | z4 d3 A | %8
w: Quis est hic, quis est|hic et lau- da-|* bi- mus e-|* um, quis est|hic, quis est hic, et lau-|da- bi- mus|e- um|fe- cit|
 BBdc e3 G | AccB B4 | A4 c3 B | dGAA B3 c | d6 G2 |"^#" A4 G/E/F/G/ A/G/^F/E/ | %14
w: e- nim mi- ra- bi- li-|a in vi- ta su-|a, fe- cit|e- nim mi- ra- bi- li-|a in|vi- ta _ _ _ _ _ _ _|
 ^F/G/A/B/ c/A/B/c/ d/c/B/A/ c/B/A/G/ | A8 | G8 | z4 c2 A/B/c/A/ | B4 d2 ^c/d/e/c/ | %19
w: _ _ _ _ _ _ _ _ _ _ _ _ _ _ _ _|su-|a,|i- ste _ _ _|est, i- ste _ _ _|
 d2 A/G/A/B/ c/B/A/G/ A2 | B2 c4 B2 | c4 f2 d/e/f/d/ | e2 c/B/c/d/ e/d/e/c/ d/c/d/e/ | f3 e e4 | %24
w: est, Ni- * * * * * * * *|co- la- *|us, i- ste _ _ _|esr Ni- * * * * * * * * * * *|* co- la-|
 d4 z2 AA | B2 c2 d2 e/d/e/c/ | d4 c4 | z2 AA A2 ^G2 | A2 dd d2 ^c2 | d4 z2 dc | B2 c2 z2 fe | %31
w: us, qui pro|ba- tus est in _ _ _|il- lo|et per- fe- ctus|est, et per- fe- ctus|est, e- rit|il- li e- rit|
 d2 e2 dccB | B4 A4 | edfe d4 | c8 | z4 A4 | d3 A _B4- | B2 G>^F A4- | A2 FE G2 A2 | %39
w: il- l'in glo- ri- a ae-|ter- na,|glo- ri- a ae- ter-|na,|qui|po- tu- it|_ trans gre- di|_ et non est trans-|
 G/F/E/F/ G/A/_B/G/ A/E/F/G/ A/=B/c/F/ | G/_B/A/G/ A/G/A/F/ G4 | F4 z2 c2- | c2 _BA BAAG | A4 G4 | %44
w: gres- * * * * * * * * * * * * * * *||sus fa-|* ce- re ma- la et non|fu- it,|
 z2 d4 cB | cBBA B4 | A4 z2 d2- | d2 B/c/d/B/ c2 A2- | A2 ^F/G/A/F/ G2 EE | ^FF G2 A2 AG | %50
w: fa- ce- re|ma- la et non fu-|it, i-|* de- * * * o, i-|* de- * * * o sta- bi-|li- ta sunt bo- na, il-|
 _B2 BA G3 F | F4 z2 c2 | BABc d2 cB | c2 c2 B2 AG | A2 B2 c2 de | fede ^c2 d2- | d2 ^c2 d4 | %57
w: li- us in Do- mi-|no, et|e- * le- mo- ny- sos il|li- us e- nar- ra-|bit o- mnis Ec- *|cle- si- a san- cto- *|* * rum,|
 z2 G2 AGAB | c2 BA B2 G2 | A2 G^F G2 E2 | F2 GA _BAGA | ^F2 G4 F2 | G8 | z4 c4- | ccBA B4 | %65
w: et ee- * le- mo-|ny- sos il- li- us|a- nar- ra- bit o-|mnis Ec- * cle- si a san-|cto- * *|rum.|San-|* cte Ni- co- la-|
 A2 e4 BB | B4 A4 | z2 B>c d4- | d2 cB A/G/A/B/ c/A/B/c/ | d/A/B/c/ d/c/B/A/ B/^F/G/A/ B/c/d/G/ | %70
w: e, o- ra pro|no- bis,|o- * *|* ra pro no- * * * * * * *||
 A/^F/G/A/ B/A/B/G/ A4 | G8 |] %72
w: |bis|
V:2
"^BC" G,3 E, D,2 C,A,, | G,,4 C,4 |"^#" E,4 D,4- | D,2 G,,2 z2 C,D, | E,2 F,D, C,4 | D,4 F,4 | %6
"^#""^#" E,6 A,,2 |"^#" z4 D,4 | G,,4 C,2 E,2 |"^#" F,2 D,2 E,4 |"^#""^-natural" A,,4 A,,4 | %11
 B,,2 C,D, G,,2 E,2 |"^#" D,4 B,,4 |"^#" ^C,2 D,2 E,4 |"^#" D,8- | D,8 | G,,4 B,,4 | %17
"^#" C,4 C,2 D,2 |"^#" G,,4 G,,2 A,,2 |"^#" D,4 E,2 ^F,2 | G,8 |"^-natural" C,4 D,2 G,2 | %22
 C,6 B,,2 |"^#""^#" A,,2 G,,2 A,,4 |"^#""^#" D,4 D,4 | G,2 E,2 D,2 C,2 | F,2 G,2 C,2 D,E, | %27
"^#" F,4 D,2 E,2 |"^#""^#" A,,2 ^F,,2 G,,2 A,,2 | D,2 B,,2 C,2 D,2 | G,,2 C,B,, A,,2 D,2 | %31
 G,2 C,2 D,4 |"^#""^#" E,4 A,,4 | C,2 F,,2 G,,4 | C,4 E,4 | F,6 E,2 |"^#" D,4 G,,4 | %37
"^(b)" C,6 B,,A,, | C,4 _B,,2 A,,2 | C,8- | C,8 | F,,2 F,2 F,2 E,2 |"^b" D,4 C,2 _E,2 | %43
"^#" D,4 G,,2 G,2 | G,2 F,2 E,4 |"^#" D,2 F,2 E,4 |"^#""^#" A,,4 D,4 | G,,4 C,2 F,2 | %48
"^#""^#" D,4 G,,2 A,,2 |"^#" D,2 C,2 F,,4 | _B,,4 C,4 | F,,4 C,4 | G,,4 D,4 | A,,4 E,4 | %54
"^#" D,2 G,,2 C,4 |"^-natural""^#" D,2 G,,2 A,,2 ^F,,2 |"^#""^#" G,,2 A,,2 D,4 | G,4 F,2 D,2 | %58
 C,4 G,2 E,2 |"^#" D,4 B,,2 C,2 | F,,4 G,,2 C,2 | D,8 | G,,4 G,,4 | C,6 B,,2 |"^#" A,,4 E,2 D,2 | %65
 ^C,4 D,4 |"^#" E,4 A,,4 | G,,8 |"^#" D,8- | D,8- | D,8 | G,,8 |] %72

